public/no-image.svg

<svg width="125" height="118" viewBox="0 0 125 118" fill="none" xmlns="http://www.w3.org/2000/svg">
<rect width="125" height="118" fill="#A3A2A2"/>
<path d="M39.3345 49.4971L38.8071 59.4287L34.9692 59.7803L32.9185 54.4629L32.5962 59.8828H29.3003L29.564 49.4971L33.2261 49.3213L35.7603 54.5947L35.8774 49.6143L39.3345 49.4971ZM48.8853 54.8291C48.8853 55.2734 48.834 55.7031 48.7314 56.1182C48.6289 56.5283 48.48 56.9141 48.2847 57.2754C48.0942 57.6367 47.8599 57.9688 47.5815 58.2715C47.3081 58.5693 46.998 58.8257 46.6514 59.0405C46.3096 59.2554 45.936 59.4238 45.5308 59.5459C45.1255 59.6631 44.6958 59.7217 44.2417 59.7217C43.8022 59.7217 43.3823 59.6655 42.9819 59.5532C42.5864 59.4409 42.2153 59.2847 41.8687 59.0845C41.522 58.8794 41.207 58.6353 40.9238 58.3521C40.6455 58.064 40.4062 57.7466 40.2061 57.3999C40.0107 57.0483 39.8569 56.6724 39.7446 56.272C39.6372 55.8716 39.5835 55.4541 39.5835 55.0195C39.5835 54.5947 39.6348 54.1797 39.7373 53.7744C39.8398 53.3643 39.9863 52.9785 40.1768 52.6172C40.3721 52.2559 40.6064 51.9238 40.8799 51.6211C41.1533 51.3184 41.4585 51.0571 41.7954 50.8374C42.1372 50.6177 42.5059 50.4468 42.9014 50.3247C43.2969 50.2026 43.7144 50.1416 44.1538 50.1416C44.8618 50.1416 45.5063 50.2515 46.0874 50.4712C46.6733 50.6909 47.1714 51.0059 47.5815 51.416C47.9966 51.8213 48.3164 52.3145 48.541 52.8955C48.7705 53.4717 48.8853 54.1162 48.8853 54.8291ZM45.6333 55.0195C45.6333 54.8096 45.6016 54.6069 45.5381 54.4116C45.4795 54.2114 45.3916 54.0356 45.2744 53.8843C45.1572 53.728 45.0107 53.6035 44.835 53.5107C44.6641 53.4131 44.4663 53.3643 44.2417 53.3643C44.0122 53.3643 43.8071 53.4058 43.6265 53.4888C43.4458 53.5718 43.2896 53.6865 43.1577 53.833C43.0308 53.9746 42.9331 54.1431 42.8647 54.3384C42.7964 54.5288 42.7622 54.7314 42.7622 54.9463C42.7622 55.1514 42.7915 55.3564 42.8501 55.5615C42.9087 55.7666 42.9966 55.9521 43.1138 56.1182C43.231 56.2842 43.375 56.4185 43.5459 56.521C43.7217 56.6235 43.9243 56.6748 44.1538 56.6748C44.3833 56.6748 44.5884 56.6309 44.769 56.543C44.9546 56.4502 45.1108 56.3281 45.2378 56.1768C45.3647 56.0205 45.4624 55.8423 45.5308 55.6421C45.5991 55.4419 45.6333 55.2344 45.6333 55.0195ZM56.2827 49.6875L55.4771 59.6631L52.3862 59.8242V49.8926L56.2827 49.6875ZM68.1187 49.3213L67.4448 60.0732L64.105 60.2197L64.1343 54.5508L62.6255 59.1211H61.3364L60.1792 55.0342L60.1646 59.7803L56.7808 59.8828L56.9272 49.7607L60.6919 49.6143L62.186 54.4629L64.1782 49.3213H68.1187ZM77.7646 59.3701L74.1318 59.8389L73.6924 58.1836H72.0225L71.6562 59.8389L67.9209 59.4727L70.8359 49.7168L74.9082 49.5117L77.7646 59.3701ZM73.4287 55.9424L72.8721 53.3936L72.3301 55.9424H73.4287ZM86.583 58.5059C86.3535 58.7939 86.0703 59.0454 85.7334 59.2603C85.3965 59.4751 85.0352 59.6533 84.6494 59.7949C84.2637 59.9365 83.8682 60.0415 83.4629 60.1099C83.0576 60.1831 82.6719 60.2197 82.3057 60.2197C81.5977 60.2197 80.9458 60.0928 80.3501 59.8389C79.7544 59.585 79.2393 59.2358 78.8047 58.7915C78.375 58.3423 78.0381 57.8149 77.7939 57.2095C77.5498 56.604 77.4277 55.9521 77.4277 55.2539C77.4277 54.7217 77.4888 54.2017 77.6108 53.6938C77.7329 53.1812 77.9062 52.7002 78.1309 52.251C78.3604 51.7969 78.6387 51.3818 78.9658 51.0059C79.293 50.625 79.6641 50.2979 80.0791 50.0244C80.4941 49.751 80.9482 49.5386 81.4414 49.3872C81.9346 49.2358 82.4619 49.1602 83.0234 49.1602C83.2334 49.1602 83.458 49.1699 83.6973 49.1895C83.9365 49.2041 84.1733 49.2334 84.4077 49.2773C84.647 49.3164 84.8789 49.3726 85.1035 49.4458C85.3281 49.519 85.5332 49.6094 85.7188 49.7168L85.5137 52.5146C85.2402 52.4121 84.957 52.3438 84.6641 52.3096C84.376 52.2705 84.0928 52.251 83.8145 52.251C83.4238 52.251 83.0576 52.312 82.7158 52.4341C82.3789 52.5513 82.0835 52.7222 81.8296 52.9468C81.5806 53.1714 81.3828 53.4448 81.2363 53.7671C81.0898 54.0894 81.0166 54.4531 81.0166 54.8584C81.0166 55.1123 81.0508 55.3589 81.1191 55.5981C81.1875 55.8325 81.29 56.0425 81.4268 56.228C81.5684 56.4087 81.7417 56.5552 81.9468 56.6675C82.1567 56.7798 82.3984 56.8359 82.6719 56.8359C82.8574 56.8359 83.0479 56.8115 83.2432 56.7627C83.4434 56.7139 83.6143 56.6309 83.7559 56.5137L83.7852 55.9424L82.0273 55.9131L82.1152 53.7158C82.8428 53.6914 83.5703 53.6719 84.2979 53.6572C85.0254 53.6377 85.7578 53.6133 86.4951 53.584L86.583 58.5059ZM94.083 49.4385C94.0537 49.8975 94.0269 50.3516 94.0024 50.8008C93.978 51.25 93.9463 51.7041 93.9072 52.1631L90.8018 52.3242L90.7285 53.2471H92.9111L92.75 55.5176L90.5527 55.5908L90.4795 56.6602H92.2959H93.585C93.5557 57.1973 93.5239 57.7319 93.4897 58.2642C93.4604 58.7915 93.4336 59.3213 93.4092 59.8535L87.0957 60L87.3301 49.4385H94.083Z" fill="black"/>
</svg>

<svg xmlns="http://www.w3.org/2000/svg" width="125" height="118" fill="none"><path fill="#A3A2A2" d="M0 0h125v118H0z"/><path fill="#000" d="m39.335 49.497-.528 9.932-3.838.351-2.05-5.317-.323 5.42H29.3l.264-10.386 3.662-.176 2.534 5.274.117-4.98zm9.55 5.332q0 .666-.154 1.29-.153.615-.446 1.156-.285.543-.703.997a4.572 4.572 0 0 1-2.05 1.274 4.6 4.6 0 0 1-1.29.176q-.66 0-1.26-.169a5 5 0 0 1-1.113-.468 4.8 4.8 0 0 1-.945-.733 5 5 0 0 1-.718-.952 5.2 5.2 0 0 1-.461-1.128 5.058 5.058 0 0 1-.007-2.498q.153-.615.439-1.157.293-.541.703-.996t.915-.784q.513-.33 1.106-.512a4.2 4.2 0 0 1 1.253-.183q1.062 0 1.933.33a4.13 4.13 0 0 1 2.454 2.423q.345.865.344 1.934m-3.252.19q0-.315-.095-.607a1.6 1.6 0 0 0-.264-.528 1.3 1.3 0 0 0-.439-.373 1.2 1.2 0 0 0-.593-.147q-.345 0-.615.125a1.42 1.42 0 0 0-.762.85q-.103.285-.103.607 0 .307.088.616.088.307.264.556.175.249.432.403.264.153.608.154.344 0 .615-.132a1.45 1.45 0 0 0 .469-.366q.19-.235.293-.535t.102-.623m10.65-5.331-.806 9.975-3.09.161v-9.931zm11.836-.367-.674 10.752-3.34.147.03-5.67-1.51 4.571h-1.289l-1.157-4.087-.014 4.746-3.384.103.146-10.122 3.765-.147 1.494 4.849 1.992-5.142zm9.646 10.05-3.633.468-.44-1.655h-1.67l-.366 1.655-3.735-.366 2.915-9.756 4.072-.205zm-4.336-3.429-.557-2.548-.542 2.548zm13.154 2.564q-.345.432-.85.754a5.6 5.6 0 0 1-1.084.535 6.6 6.6 0 0 1-1.186.315q-.608.11-1.157.11-1.062 0-1.956-.381a4.7 4.7 0 0 1-1.545-1.047 4.9 4.9 0 0 1-1.011-1.583 5.2 5.2 0 0 1-.366-1.955q0-.798.183-1.56.183-.77.52-1.443.345-.682.835-1.245.49-.571 1.113-.982a5.28 5.28 0 0 1 2.944-.864q.315 0 .674.03.36.021.71.087.36.06.697.169t.615.27l-.205 2.799a3.6 3.6 0 0 0-.85-.205 6 6 0 0 0-.85-.059q-.585 0-1.098.183a2.6 2.6 0 0 0-.886.513 2.5 2.5 0 0 0-.594.82q-.22.483-.22 1.091 0 .38.103.74.103.352.308.63.212.27.52.44.314.168.725.168.278 0 .571-.073.3-.074.513-.25l.03-.57-1.759-.03.088-2.197q1.091-.037 2.183-.059 1.091-.03 2.197-.073zm7.5-9.068q-.044.69-.08 1.363-.038.673-.096 1.362l-3.105.161-.074.923h2.183l-.161 2.27-2.197.074-.073 1.07h3.105q-.045.804-.095 1.603-.044.79-.08 1.59L87.095 60l.234-10.562z"/></svg>
